packages/core/src/svgs/tokens/mono/BRN.svg

<svg width="24" height="24" viewBox="0 0 24 24" fill="none" xmlns="http://www.w3.org/2000/svg">
<path d="M6.37498 14.0938L5.47498 12.625L2 18.55L10.125 22L8.87497 20.125L4.10623 18.05L6.37498 14.0938ZM17.625 14.0938L18.5249 12.625L22 18.55L13.8749 22L15.125 20.125L19.8937 18.05L17.625 14.0938Z" fill="white"/>
<path d="M10.125 10.7501L12 7.62512L13.8749 10.7501L13.1812 12.2939L13.8749 13.8751L12 17L10.125 13.8751L10.8187 12.2939L10.125 10.7501ZM12 15.7501L13.1063 13.8751L12.7937 13.0251L12.625 13.2501V11.8876L13.025 10.7501L12 8.87511L10.9751 10.7501L11.3749 11.8876V13.2501L11.2062 13.0251L10.8937 13.8751L12 15.7501Z" fill="white"/>
<path d="M7.62524 9.2938L12.0002 2L16.3752 9.2938L15.5502 10.7499L12.0002 4.79999L8.45023 10.7499L7.62524 9.2938Z" fill="white"/>
<path d="M2 5.12499L11.9999 21.9999L22 5.12499L14.075 2L15.125 3.875L19.8812 5.61874L11.9999 19.0875L4.11873 5.625L8.87497 3.875L9.92503 2L2 5.12499Z" fill="white"/>
</svg>

<svg xmlns="http://www.w3.org/2000/svg" width="24" height="24" fill="none" viewBox="0 0 24 24">
    <path fill="#fff" d="m6.375 14.094-.9-1.469L2 18.55 10.125 22l-1.25-1.875-4.769-2.075zm11.25 0 .9-1.469L22 18.55 13.875 22l1.25-1.875 4.769-2.075zm-7.5-3.344L12 7.625l1.875 3.125-.694 1.544.694 1.581L12 17l-1.875-3.125.694-1.581zm1.875 5 1.106-1.875-.312-.85-.169.225v-1.362l.4-1.138L12 8.875l-1.025 1.875.4 1.138v1.362l-.169-.225-.312.85z"/>
    <path fill="#fff" d="M7.625 9.294 12 2l4.375 7.294-.825 1.456L12 4.8l-3.55 5.95z"/>
    <path fill="#fff" d="M2 5.125 12 22 22 5.125 14.075 2l1.05 1.875 4.756 1.744L12 19.087 4.119 5.625l4.756-1.75L9.925 2z"/>
</svg>
